X:1
T:Title
%%score { ( 1 3 ) | ( 2 4 ) }
L:1/8
M:4/4
K:Ab
V:1 treble nm="Grand Piano"
V:3 treble 
V:2 bass 
V:4 bass 
V:1
 z4 z2[Q:1/4=100] EE | A2 AA FECD | E2 E>F E2 AB | c B2 A F2 [=DB]2 | B6 EE | A2 AA FECD | %6
[M:3/4] E2 [G,DE]>[G,DF] [CE]2 |[M:1/4] [FAd]2 |[M:4/4] [EAc] [CA]2 [FAd] [EAc]2 [DGB]2 | %9
[M:3/4] [CEA]6 |[M:1/4] E2 |[M:4/4] A A2 [GB] c2 A2 | e6 z2 | A A2 [EGB] [EAc]2 [=DFA]2 | B6 z2 | %15
[M:3/4] [Ece]2 [Ece][EBd] [EAc]2 |[M:1/4] [C_GA][CGA] |[M:4/4] [DFB]2 [DFB][DFA] [A,DF]2 [FAd]2 | %18
 [EAc] [CA]2 [FAd] [EAc]2 [DGB]2 |[M:3/4] A6 |] %20
V:2
 z4 z2 E,E, | [A,CE]2 [A,CE][A,CE] F,E,C,D, | E,2 [E,G,D]>[E,G,D][K:treble] [A,C]2 [A,CE][A,DE] | %3
 [A,EA] [A,DA]2[K:bass] [A,CE] [B,=D]2 [B,,A,]2 | [E,G,E]6 E,E, | [A,CE]2 [A,CE][A,CE] F,E,C,D, | %6
[M:3/4] E,2 E,>E, A,2 |[M:1/4] D,2 |[M:4/4] E, E,2 E, E,2 E,2 |[M:3/4] A,6 |[M:1/4] E,2 | %11
[M:4/4] [A,CE] [A,CE]2 [E,E][K:treble] [A,EA]2 [A,C]2 | [A,CA]2[K:bass] [E,D]2 [A,C]2 [A,C]2 | %13
 [F,CF] [F,CF]2 E, A,2 B,2 | E,2 F,2 E,2 A,A, |[M:3/4] A,2 A,A, A,2 |[M:1/4] A,A, | %17
[M:4/4] D,2 D,D, D,2 D,2 | E, E,2 E, E,2 E,2 |[M:3/4] z2 D2 C2 |] %20
V:3
 x8 | x8 | x8 | x8 | x8 | x8 |[M:3/4] x6 |[M:1/4] x2 |[M:4/4] x8 |[M:3/4] x6 |[M:1/4] x2 | %11
[M:4/4] x8 | z2 G2 A2 E2 | x8 | [EG]2 [=DA]2 [EG]2 [EAc][EBd] |[M:3/4] x6 |[M:1/4] x2 |[M:4/4] x8 | %18
 x8 |[M:3/4] [CE]2 F2 E2 |] %20
V:4
 x8 | x8 | x4[K:treble] x4 | x3[K:bass] x5 | x8 | x8 |[M:3/4] x6 |[M:1/4] x2 |[M:4/4] x8 | %9
[M:3/4] x6 |[M:1/4] x2 |[M:4/4] x4[K:treble] x4 | x2[K:bass] x6 | x8 | x8 |[M:3/4] x6 |[M:1/4] x2 | %17
[M:4/4] x8 | x8 |[M:3/4] A,6 |] %20

